app/assets/images/payment_icons/astrapay.svg

<svg role="img" width="38" height="24" viewBox="0 0 38 24" fill="none" xmlns="http://www.w3.org/2000/svg" aria-labelledby="pi-astrapay"><title id="pi-astrapay">AstraPay</title><path fill="#000" opacity=".07" d="M35 0H3C1.3 0 0 1.3 0 3v18c0 1.7 1.4 3 3 3h32c1.7 0 3-1.3 3-3V3c0-1.7-1.4-3-3-3z"/><path fill="#fff" d="M35 1c1.1 0 2 .9 2 2v18c0 1.1-.9 2-2 2H3c-1.1 0-2-.9-2-2V3c0-1.1.9-2 2-2h32"/><g clip-path="url(#pi-astrapay-clip0_5_395)"><path d="M20.1192 0.052C20.2202 0.104 20.2902 0.176 20.3752 0.206C21.0082 0.429 21.5752 0.77 21.9982 1.287C22.3412 1.707 22.6132 2.189 22.8922 2.658C23.3762 3.471 23.8422 4.293 24.3142 5.114C25.2209 6.69886 26.1239 8.28586 27.0232 9.875C27.3072 10.378 27.4662 10.913 27.5322 11.495C27.6183 12.247 27.4787 13.0076 27.1312 13.68C26.5122 14.9 25.5452 15.695 24.1612 15.897C24.0012 15.92 23.8382 15.945 23.6772 15.946C20.5362 15.948 17.3942 15.954 14.2522 15.944C13.3892 15.941 12.6382 15.602 11.9642 15.064C11.1592 14.422 10.6992 13.572 10.5022 12.582C10.3492 11.81 10.4132 11.025 10.7672 10.322C11.2462 9.372 11.7972 8.46 12.3212 7.534C12.7992 6.687 13.2782 5.841 13.7612 4.998C14.2442 4.154 14.7262 3.308 15.2232 2.473C15.4762 2.05 15.7222 1.611 16.0432 1.243C16.471 0.747566 17.0329 0.386394 17.6612 0.203C17.7405 0.17537 17.8123 0.129862 17.8712 0.07C18.6032 0.052 19.3492 0.052 20.1192 0.052ZM23.9112 11.916C24.1282 11.274 24.0442 10.656 23.7192 10.079C22.9262 8.674 22.1342 7.267 21.3082 5.882C21.0737 5.47907 20.7374 5.14494 20.3329 4.9132C19.9284 4.68145 19.47 4.56025 19.0039 4.56177C18.5377 4.56329 18.0801 4.68748 17.6772 4.92186C17.2742 5.15624 16.94 5.49255 16.7082 5.897C15.8862 7.285 15.0882 8.687 14.2962 10.094C13.6902 11.172 13.9502 12.461 14.8862 13.16C15.8582 13.884 17.1662 13.776 18.0302 12.897C18.2192 12.706 18.3972 12.503 18.5882 12.313C18.8512 12.052 19.1742 12.052 19.4382 12.313C19.6042 12.478 19.7582 12.655 19.9232 12.822C21.1712 14.085 23.2702 13.625 23.9112 11.916ZM7.00119 22.298C7.03619 22.246 7.08919 22.224 7.10319 22.187C7.45719 21.212 7.80319 20.233 8.16619 19.261C8.20619 19.154 8.32919 19.014 8.42519 19.005C9.00019 18.951 9.19919 18.914 9.39119 19.505C9.72819 20.542 10.0862 21.571 10.4342 22.603C10.5212 22.861 10.4542 22.93 10.1872 22.959C9.89119 22.992 9.74219 22.875 9.67419 22.592C9.62319 22.38 9.53919 22.176 9.46919 21.967H7.95519C7.89819 22.163 7.83119 22.362 7.78119 22.565C7.68119 22.969 7.42919 23.08 7.02119 22.891C7.00373 22.6938 6.99705 22.4959 7.00119 22.298V22.298ZM9.02719 20.522L8.72519 19.622L8.13519 21.322H9.29519C9.20164 21.0568 9.1123 20.7901 9.02719 20.522V20.522ZM28.6352 24.052C28.4522 23.795 28.6212 23.652 28.7812 23.48C28.9992 23.246 29.1842 22.981 29.3182 22.813C29.0922 22.395 28.8852 22.075 28.7392 21.728C28.5392 21.251 28.3812 20.754 28.2092 20.265C28.1592 20.122 28.0822 19.968 28.2902 19.873C28.5162 19.77 28.7502 19.813 28.8582 20.002C28.9112 20.096 28.9372 20.207 28.9752 20.312C29.1932 20.908 29.4112 21.505 29.6952 22.104C29.8352 21.711 29.9872 21.323 30.1092 20.925C30.2022 20.625 30.2432 20.309 30.3312 20.007C30.3912 19.8 30.5842 19.808 30.7532 19.827C30.8252 19.837 30.8922 19.889 30.9812 19.921C31.0012 20.167 31.0012 20.411 30.9822 20.671C30.9466 20.7138 30.9182 20.7621 30.8982 20.814C30.6262 21.712 30.3032 22.59 29.8012 23.389C29.6572 23.616 29.4932 23.831 29.3392 24.052H28.6352V24.052ZM22.6392 21.713C22.6372 22.051 22.6272 22.365 22.6412 22.677C22.6512 22.882 22.5692 22.96 22.3762 22.955C22.1722 22.95 21.9402 22.994 21.9132 22.69C21.9002 22.552 21.9102 22.411 21.9102 22.272C21.9102 21.332 21.9172 20.393 21.9052 19.454C21.9022 19.239 21.9592 19.084 22.1612 19.039C22.8512 18.884 23.5492 18.789 24.1972 19.169C24.7912 19.517 24.8252 19.977 24.7512 20.553C24.6842 21.081 24.2412 21.469 23.7092 21.539C23.4222 21.577 23.1292 21.572 22.8402 21.599C22.7712 21.605 22.7062 21.657 22.6382 21.713H22.6392ZM22.6372 19.9V21.02C23.0182 20.963 23.3602 20.943 23.6822 20.852C23.9922 20.764 24.0452 20.473 24.0392 20.184C24.0332 19.91 23.8792 19.669 23.6102 19.617C23.2982 19.557 22.9742 19.561 22.6372 19.535V19.901V19.9ZM25.9652 21.123C26.1572 21.105 26.3262 21.091 26.4952 21.07C26.6552 21.05 26.8142 21.02 26.9752 20.995C27.0112 20.579 26.7002 20.362 26.3772 20.397C26.1092 20.426 25.8472 20.503 25.5802 20.544C25.4882 20.558 25.3102 20.537 25.3052 20.51C25.2822 20.371 25.2502 20.14 25.3182 20.097C25.5252 19.966 25.7722 19.853 26.0122 19.829C26.3992 19.792 26.7962 19.774 27.1682 19.972C27.5062 20.152 27.6652 20.432 27.6732 20.8C27.6842 21.313 27.6722 21.828 27.6782 22.342C27.6812 22.558 27.5902 22.715 27.4032 22.798C26.7932 23.068 26.1682 23.108 25.5452 22.847C25.2362 22.717 25.0082 22.33 25.0322 22.024C25.0662 21.574 25.3122 21.271 25.7202 21.176C25.7942 21.158 25.8682 21.141 25.9652 21.123ZM25.8882 21.749C25.6732 21.983 25.7002 22.287 25.9902 22.352C26.2802 22.417 26.6002 22.357 26.9062 22.341C26.9402 22.339 26.9942 22.26 26.9962 22.215C27.0062 21.995 27.0002 21.773 27.0002 21.517C26.6122 21.59 26.2652 21.655 25.8882 21.749V21.749ZM19.5732 19.817C19.9952 19.797 20.3592 19.874 20.6632 20.155C20.8462 20.325 20.9232 20.53 20.9232 20.775C20.9232 21.297 20.9112 21.82 20.9282 22.342C20.9372 22.596 20.8102 22.733 20.6132 22.819C20.1159 23.0359 19.5601 23.0793 19.0352 22.942C18.5652 22.826 18.2652 22.453 18.2752 22.034C18.2852 21.552 18.6082 21.208 19.1482 21.127C19.5082 21.073 19.8732 21.04 20.2362 20.997C20.2102 20.327 19.7832 20.354 19.2132 20.419C19.0982 20.432 18.9902 20.498 18.8762 20.531C18.7392 20.571 18.5862 20.687 18.5062 20.446C18.4412 20.254 18.5122 20.033 18.7062 19.981C18.9812 19.907 19.2662 19.87 19.5732 19.817V19.817ZM19.0012 21.998C18.9882 22.188 19.0732 22.35 19.2492 22.365C19.5462 22.391 19.8492 22.362 20.1492 22.344C20.1842 22.341 20.2412 22.264 20.2432 22.219C20.2532 21.997 20.2472 21.774 20.2472 21.557C20.0072 21.572 19.7972 21.558 19.6012 21.604C19.3732 21.656 19.0912 21.649 19.0012 21.998V21.998ZM11.4932 19.933C11.9982 19.75 12.4842 19.776 12.9632 19.943C13.1642 20.013 13.2692 20.178 13.2262 20.391C13.1962 20.545 13.1262 20.636 12.9162 20.559C12.6582 20.464 12.3742 20.427 12.0992 20.399C11.8942 20.377 11.6912 20.491 11.6972 20.697C11.7002 20.807 11.8962 20.949 12.0332 21.012C12.3462 21.155 12.6812 21.247 12.9992 21.38C13.3312 21.52 13.3692 21.852 13.3702 22.139C13.3762 22.2987 13.3309 22.4561 13.2409 22.5882C13.1509 22.7203 13.021 22.8201 12.8702 22.873C12.3212 23.079 11.7672 23.08 11.2302 22.833C10.8822 22.673 10.8542 22.396 11.0822 22.181C11.4672 22.271 11.8052 22.365 12.1492 22.424C12.2522 22.441 12.3862 22.386 12.4792 22.324C12.5592 22.27 12.6542 22.157 12.6492 22.074C12.6442 21.978 12.5592 21.839 12.4732 21.802C12.1872 21.68 11.8872 21.589 11.5892 21.497C11.2722 21.399 11.0332 21.231 11.0022 20.871C10.9682 20.466 11.0532 20.116 11.4922 19.933H11.4932ZM14.5332 21.23V21.935C14.5352 22.33 14.7832 22.511 15.1612 22.407C15.2942 22.371 15.4662 22.2 15.5602 22.462C15.6482 22.709 15.5632 22.866 15.2902 22.952C15.0863 23.0185 14.8697 23.0362 14.6578 23.0035C14.4458 22.9709 14.2445 22.8888 14.0702 22.764C13.8192 22.593 13.8202 22.274 13.8142 22.011C13.7932 21.088 13.8072 20.165 13.8042 19.241C13.8042 19.104 13.8442 19.039 13.9942 19.03C14.4632 19.002 14.5342 19.062 14.5342 19.539V19.974C14.8082 19.974 15.0562 19.977 15.3052 19.973C15.4552 19.97 15.5752 19.969 15.5772 20.183C15.5792 20.381 15.5462 20.534 15.3212 20.545C15.0712 20.557 14.8212 20.548 14.5332 20.548V21.229V21.23ZM16.1012 20.32C16.2742 20.175 16.4252 19.987 16.6102 19.94C16.9574 19.8562 17.3141 19.8186 17.6712 19.828C18.0272 19.837 18.1152 20.088 17.9642 20.363L16.9502 20.497C16.8022 20.516 16.7622 20.601 16.7642 20.747C16.7712 21.373 16.7682 21.999 16.7662 22.625C16.7662 22.781 16.8222 22.965 16.5442 22.959C16.1842 22.951 16.0462 22.875 16.0422 22.597C16.0343 22.1187 16.0343 21.6403 16.0422 21.162C16.0472 20.887 16.0762 20.613 16.1022 20.319L16.1012 20.32Z" fill="#0045E5"/><path d="M23.9022 11.935C23.2712 13.625 21.1712 14.085 19.9232 12.822C19.7592 12.655 19.6052 12.478 19.4382 12.313C19.1742 12.053 18.8512 12.052 18.5882 12.313C18.3982 12.503 18.2192 12.706 18.0312 12.897C17.1662 13.777 15.8592 13.884 14.8872 13.16C13.9502 12.461 13.6902 11.172 14.2972 10.094C15.0872 8.688 15.8872 7.286 16.7082 5.897C16.94 5.49255 17.2742 5.15624 17.6772 4.92186C18.0801 4.68748 18.5377 4.56329 19.0039 4.56177C19.47 4.56025 19.9284 4.68145 20.3329 4.9132C20.7374 5.14494 21.0737 5.47907 21.3082 5.882C22.1342 7.267 22.9262 8.674 23.7192 10.079C24.0442 10.656 24.1292 11.274 23.9022 11.935ZM20.4642 6.71C20.4132 6.62 20.3652 6.527 20.3092 6.44C20.1701 6.219 19.9768 6.03721 19.7477 5.91187C19.5186 5.78653 19.2613 5.72179 19.0001 5.72379C18.739 5.72579 18.4827 5.79447 18.2555 5.92332C18.0284 6.05216 17.8379 6.23689 17.7022 6.46C17.6012 6.622 17.5102 6.79 17.4152 6.956C16.7092 8.192 15.9932 9.422 15.3002 10.666C14.9622 11.272 15.0972 11.886 15.6002 12.248C16.1172 12.621 16.7822 12.543 17.2432 12.057C17.4232 11.867 17.6032 11.679 17.7862 11.494C17.945 11.3306 18.1348 11.2005 18.3446 11.1115C18.5544 11.0225 18.7798 10.9763 19.0077 10.9756C19.2356 10.975 19.4613 11.0199 19.6716 11.1077C19.8819 11.1955 20.0725 11.3245 20.2322 11.487C20.3792 11.634 20.5222 11.786 20.6652 11.938C21.1612 12.469 21.8432 12.547 22.3882 12.132C22.9342 11.718 23.0202 11.159 22.6382 10.492C21.9212 9.241 21.2032 7.992 20.4642 6.71V6.71Z" fill="#EBE60B"/><path d="M20.4752 6.726C21.2032 7.992 21.9212 9.241 22.6372 10.492C23.0202 11.16 22.9332 11.718 22.3882 12.132C21.8432 12.547 21.1602 12.469 20.6642 11.938C20.5227 11.7856 20.3786 11.6356 20.2322 11.488C20.0725 11.3254 19.882 11.1964 19.6717 11.1085C19.4615 11.0206 19.2358 10.9756 19.0079 10.9761C18.78 10.9767 18.5546 11.0228 18.3448 11.1117C18.135 11.2007 17.9451 11.3306 17.7862 11.494C17.6033 11.6798 17.4222 11.8675 17.2432 12.057C16.7822 12.543 16.1172 12.621 15.5992 12.248C15.0972 11.886 14.9622 11.272 15.2992 10.666C15.9922 9.423 16.7092 8.192 17.4152 6.956C17.5102 6.791 17.6012 6.623 17.7022 6.461C17.8377 6.23779 18.0281 6.0529 18.2551 5.92388C18.4822 5.79486 18.7384 5.72599 18.9996 5.72378C19.2607 5.72158 19.5181 5.78612 19.7473 5.91129C19.9765 6.03646 20.1699 6.21811 20.3092 6.439C20.3652 6.527 20.4132 6.62 20.4752 6.726V6.726Z" fill="#0146E4"/></g><defs><clipPath id="pi-astrapay-clip0_5_395"><rect width="38" height="24" fill="white"/></clipPath></defs></svg>

<svg width="38" height="24" viewBox="0 0 38 24" role="img" aria-labelledby="pi-astrapay" fill="none" xmlns="http://www.w3.org/2000/svg"><title id="pi-astrapay">AstraPay</title><path fill="#000" opacity=".07" d="M35 0H3C1.3 0 0 1.3 0 3v18c0 1.7 1.4 3 3 3h32c1.7 0 3-1.3 3-3V3c0-1.7-1.4-3-3-3z"/>
    <path fill="#fff" d="M35 1c1.1 0 2 .9 2 2v18c0 1.1-.9 2-2 2H3c-1.1 0-2-.9-2-2V3c0-1.1.9-2 2-2h32"/><g clip-path="url(#pi-astrapay)"><path d="M20.119.052c.1.052.17.124.255.154.633.223 1.2.564 1.623 1.081.343.42.615.902.894 1.371.484.813.951 1.635 1.422 2.456a1155.779 1155.779 0 0 1 2.709 4.761c.285.503.444 1.038.509 1.62a3.814 3.814 0 0 1-.4 2.185c-.62 1.22-1.587 2.015-2.972 2.217-.16.023-.321.048-.482.049-3.142.002-6.284.008-9.425-.002-.864-.003-1.615-.342-2.289-.88-.804-.642-1.265-1.492-1.462-2.482-.153-.772-.088-1.557.266-2.26.478-.95 1.03-1.862 1.553-2.788.478-.847.957-1.693 1.44-2.536.484-.844.965-1.69 1.463-2.525.252-.423.498-.862.82-1.23A3.394 3.394 0 0 1 17.66.204a.547.547 0 0 0 .21-.133c.733-.018 1.479-.018 2.249-.018Zm3.791 11.864c.217-.642.133-1.26-.192-1.837-.793-1.405-1.584-2.812-2.411-4.197a2.656 2.656 0 0 0-4.6.015c-.822 1.388-1.62 2.79-2.412 4.197-.606 1.078-.345 2.367.591 3.066.972.724 2.279.616 3.144-.263.188-.191.366-.394.557-.584.263-.261.586-.261.85 0 .167.165.32.342.485.509 1.248 1.263 3.348.803 3.988-.906ZM7 22.298c.035-.052.088-.074.102-.111.355-.975.7-1.954 1.063-2.926.04-.107.164-.247.26-.256.574-.054.774-.091.966.5.336 1.037.695 2.066 1.042 3.098.087.258.02.327-.247.356-.296.033-.445-.084-.513-.367-.05-.212-.135-.416-.205-.625H7.955c-.058.196-.125.395-.175.598-.1.404-.351.515-.76.326C7 22.71 7 22.517 7 22.299Zm2.026-1.776-.301-.9-.59 1.7h1.159a26.69 26.69 0 0 1-.268-.8ZM28.635 24.052c-.184-.257-.015-.4.145-.572.218-.234.404-.499.537-.667-.226-.418-.433-.738-.579-1.085-.2-.477-.358-.974-.53-1.463-.05-.143-.127-.297.082-.392.225-.103.46-.06.567.129.054.094.079.205.117.31.218.596.436 1.193.72 1.792.14-.393.292-.781.414-1.179.093-.3.134-.616.222-.918.061-.207.253-.199.422-.18.072.01.139.062.228.094.02.246.02.49.001.75a.51.51 0 0 0-.084.143c-.272.898-.594 1.776-1.097 2.575-.144.227-.308.442-.462.663h-.703ZM22.637 21.713c0 .338-.011.652.003.964.01.205-.072.283-.265.278-.203-.005-.436.039-.463-.265-.013-.138-.003-.279-.003-.418 0-.94.008-1.879-.005-2.818-.003-.215.054-.37.256-.415.69-.155 1.388-.25 2.037.13.593.348.627.808.554 1.384-.068.528-.51.916-1.042.986-.288.038-.58.033-.87.06-.069.006-.134.058-.202.114Zm0-1.813v1.12c.38-.057.722-.077 1.044-.168.31-.088.363-.379.357-.668-.006-.274-.16-.515-.429-.567-.312-.06-.636-.056-.972-.082v.366ZM25.964 21.123c.192-.018.361-.032.53-.053.16-.02.319-.05.48-.075.036-.416-.275-.633-.598-.598-.268.029-.53.106-.797.147-.092.014-.27-.007-.275-.034-.023-.139-.055-.37.014-.413.206-.131.453-.244.693-.268.387-.037.785-.055 1.156.143.339.18.498.46.506.828.01.513-.002 1.028.004 1.542.003.216-.088.373-.275.456-.61.27-1.234.31-1.858.049-.309-.13-.537-.517-.513-.823.034-.45.281-.753.688-.848.074-.018.148-.035.245-.053Zm-.077.626c-.215.234-.188.538.102.603.291.065.61.005.917-.011.033-.002.087-.081.09-.126.009-.22.004-.442.004-.698-.39.073-.736.138-1.113.232ZM19.573 19.817c.421-.02.786.057 1.09.338.182.17.26.375.26.62-.002.522-.013 1.045.005 1.567.008.254-.12.391-.316.477a2.417 2.417 0 0 1-1.578.123c-.47-.116-.77-.489-.76-.908.01-.482.334-.826.873-.907.36-.054.725-.087 1.088-.13-.026-.67-.453-.643-1.023-.578-.115.013-.223.079-.337.112-.136.04-.29.156-.37-.085-.064-.192.006-.413.2-.465.275-.074.561-.111.868-.164ZM19 21.998c-.014.19.072.352.247.367.297.026.6-.003.9-.021.035-.003.092-.08.094-.125.01-.222.004-.445.004-.662-.24.015-.45.001-.646.047-.228.052-.51.045-.6.394ZM11.492 19.933c.505-.183.991-.157 1.471.01.2.07.305.235.263.448-.031.154-.1.245-.311.168-.258-.095-.541-.132-.817-.16-.204-.022-.407.092-.401.298.003.11.198.252.336.315.312.143.647.235.965.368.332.14.37.472.372.759a.748.748 0 0 1-.5.734c-.55.206-1.104.207-1.642-.04-.347-.16-.374-.437-.147-.652.385.09.723.184 1.067.243.103.017.237-.038.33-.1.08-.054.175-.167.17-.25-.005-.096-.09-.235-.176-.272-.286-.122-.586-.213-.884-.305-.316-.098-.556-.266-.586-.626-.035-.405.05-.755.49-.938ZM14.533 21.23v.705c.001.395.25.576.627.472.133-.036.305-.207.399.055.089.247.004.404-.27.49a1.367 1.367 0 0 1-1.22-.188c-.25-.171-.25-.49-.256-.753-.02-.923-.007-1.846-.01-2.77 0-.137.041-.202.191-.211.468-.028.539.032.539.509v.435c.274 0 .523.003.771-.001.15-.003.271-.004.273.21.001.198-.032.351-.257.362-.25.012-.5.003-.787.003v.681ZM16.1 20.32c.173-.145.324-.333.509-.38a4.066 4.066 0 0 1 1.061-.112c.356.009.445.26.293.535l-1.014.134c-.148.019-.188.104-.186.25.007.626.005 1.252.002 1.878 0 .156.057.34-.222.334-.36-.008-.498-.084-.502-.362a43.465 43.465 0 0 1 0-1.435c.005-.275.034-.549.06-.843Z" fill="#0045E5"/><path d="M23.902 11.935c-.632 1.69-2.732 2.15-3.98.887-.164-.167-.318-.344-.485-.509-.264-.26-.587-.261-.85 0-.19.19-.369.393-.557.584-.865.88-2.172.987-3.144.263-.936-.699-1.197-1.988-.59-3.066.79-1.406 1.59-2.808 2.411-4.197a2.656 2.656 0 0 1 4.6-.015c.827 1.385 1.618 2.792 2.411 4.197.326.577.41 1.195.184 1.856ZM20.463 6.71c-.051-.09-.099-.183-.155-.27a1.533 1.533 0 0 0-2.607.02c-.1.162-.192.33-.287.496-.706 1.236-1.422 2.466-2.115 3.71-.338.606-.203 1.22.3 1.582.518.373 1.182.295 1.644-.191.179-.19.359-.378.542-.563a1.71 1.71 0 0 1 2.446-.007c.147.147.29.299.433.451.496.531 1.178.609 1.723.194.546-.414.632-.973.25-1.64-.716-1.251-1.435-2.5-2.174-3.782Z" fill="#EBE60B"/><path d="M20.474 6.726c.728 1.266 1.446 2.515 2.163 3.766.382.668.296 1.226-.25 1.64-.545.415-1.227.337-1.723-.194a19.003 19.003 0 0 0-.433-.45 1.71 1.71 0 0 0-2.446.006 37.91 37.91 0 0 0-.543.563c-.46.486-1.126.564-1.643.191-.503-.362-.638-.976-.3-1.582.693-1.243 1.409-2.474 2.115-3.71.095-.165.186-.333.287-.495a1.533 1.533 0 0 1 2.607-.022c.056.088.104.181.166.287Z" fill="#0146E4"/></g><defs><clipPath id="pi-astrapay"><path fill="#fff" d="M0 0h38v24H0z"/></clipPath></defs></svg>
